images/company/Airbnb.svg

<svg width="159" height="50" viewBox="0 0 159 50" fill="none" xmlns="http://www.w3.org/2000/svg">
<g clip-path="url(#clip0_34_1670)">
<path d="M45.5801 35.4363C45.3306 34.8269 45.0968 34.1863 44.8474 33.6394L43.6939 31.03L43.6471 30.9831C40.2177 23.4831 36.5545 15.8581 32.673 8.35813L32.5171 8.04563C32.1274 7.31125 31.7377 6.49875 31.3324 5.74875C30.8336 4.85813 30.3503 3.905 29.5553 2.99875C28.7804 2.05052 27.8051 1.28655 26.6999 0.761964C25.5947 0.237381 24.3871 -0.034729 23.1642 -0.034729C21.9413 -0.034729 20.7337 0.237381 19.6284 0.761964C18.5232 1.28655 17.5479 2.05052 16.773 2.99875C16.0403 3.905 15.4948 4.85813 14.9959 5.74875C14.6062 6.56125 14.2165 7.35813 13.8112 8.0925L13.6554 8.405C9.83623 15.905 6.11065 23.53 2.68123 31.03L2.5877 31.1238C2.24476 31.9363 1.83947 32.78 1.44976 33.6863C1.20035 34.2331 0.95094 34.8269 0.701529 35.4831C0.0281678 37.2015 -0.186858 39.0662 0.0776443 40.8933C0.342146 42.7203 1.07705 44.4468 2.20992 45.9025C3.34279 47.3582 4.83452 48.4929 6.53811 49.1948C8.2417 49.8966 10.0983 50.1414 11.9251 49.905C13.6763 49.6739 15.3627 49.0892 16.8821 48.1863C18.9086 47.0456 20.8571 45.3894 23.0395 42.9988C25.2218 45.3894 27.2171 47.0456 29.1968 48.2019C31.1006 49.322 33.2565 49.9402 35.4633 49.9988C38.0187 50.0094 40.4918 49.0929 42.4257 47.4186C44.3597 45.7443 45.6241 43.4252 45.9853 40.8894C46.4029 39.0672 46.2616 37.161 45.5801 35.4206V35.4363ZM23.1954 38.03C20.5142 34.5925 18.7683 31.4363 18.1759 28.7331C17.9305 27.7315 17.8776 26.6921 18.0201 25.6706C18.1292 24.8738 18.4254 24.1706 18.8306 23.5769C19.7659 22.2175 21.4027 21.3738 23.1954 21.3738C24.0467 21.3477 24.8911 21.5339 25.653 21.9157C26.4148 22.2975 27.0701 22.8629 27.5601 23.5613C27.9654 24.1863 28.2615 24.8738 28.3551 25.6706C28.5109 26.5769 28.4486 27.6238 28.1992 28.7331C27.6068 31.3894 25.8609 34.5769 23.1954 38.03ZM43.0548 40.3425C42.8777 41.6299 42.3671 42.8483 41.5739 43.8764C40.7808 44.9044 39.7327 45.7062 38.5342 46.2019C37.3495 46.7019 36.0401 46.8425 34.7618 46.7019C33.5148 46.5456 32.2677 46.1394 30.9895 45.3894C28.8671 44.0745 26.9587 42.4409 25.3309 40.5456C28.6045 36.4831 30.5842 32.78 31.3324 29.4831C31.6909 27.9206 31.7377 26.5144 31.5818 25.2175C31.3872 23.9883 30.9299 22.8157 30.2412 21.78C29.455 20.657 28.4055 19.7448 27.185 19.1236C25.9646 18.5024 24.6106 18.1912 23.2421 18.2175C20.3583 18.2175 17.7862 19.5613 16.2274 21.7644C15.5257 22.7974 15.0722 23.9794 14.9024 25.2175C14.6998 26.53 14.7465 27.9831 15.1518 29.4831C15.9001 32.78 17.9265 36.53 21.1533 40.5769C19.5531 42.5084 17.6403 44.1564 15.4948 45.4519C14.2009 46.2019 12.9695 46.5925 11.7224 46.7488C9.78305 46.9978 7.82402 46.4694 6.27114 45.2786C4.71826 44.0878 3.69705 42.3308 3.42947 40.3894C3.27359 39.1394 3.3827 37.8894 3.88153 36.4831C4.03741 35.9831 4.27123 35.4831 4.52065 34.8894C4.86359 34.0769 5.26888 33.2331 5.65859 32.3894L5.72094 32.28C9.088 24.8269 12.7668 17.2175 16.5859 9.76438L16.7418 9.45188C17.1315 8.70188 17.5212 7.905 17.9265 7.155C18.3318 6.35813 18.7683 5.5925 19.3295 4.9675C19.8152 4.38629 20.4222 3.91887 21.1076 3.59815C21.793 3.27744 22.5402 3.11124 23.2967 3.11124C24.0531 3.11124 24.8003 3.27744 25.4858 3.59815C26.1712 3.91887 26.7781 4.38629 27.2639 4.9675C27.8095 5.5925 28.2615 6.35813 28.6668 7.155C29.0565 7.905 29.4462 8.7175 29.8515 9.45188L30.0074 9.76438C33.8109 17.2175 37.4898 24.8269 40.9192 32.28L40.9659 32.3269C41.3712 33.1394 41.7142 34.0456 42.1039 34.8269C42.3533 35.4363 42.6027 35.9206 42.7586 36.4363C43.0548 37.8425 43.2106 39.0925 43.0548 40.3425ZM64.7536 37.6863C63.5789 37.7035 62.4155 37.4554 61.3496 36.9604C60.2837 36.4654 59.3426 35.7362 58.5962 34.8269C56.919 32.8893 56.0289 30.3911 56.1021 27.8269C56.0765 25.2069 56.9953 22.6657 58.6898 20.6706C59.4735 19.7497 60.4492 19.0122 61.548 18.5101C62.6469 18.008 63.8422 17.7534 65.0498 17.7644C66.186 17.7332 67.3116 17.9922 68.3205 18.517C69.3294 19.0418 70.1887 19.8152 70.8174 20.7644L70.9733 18.3113H75.525V37.1863H70.9577L70.8018 34.4363C70.1536 35.4498 69.2577 36.2804 68.1991 36.8492C67.1405 37.418 65.9545 37.7062 64.7536 37.6863ZM65.9383 33.1863C66.8424 33.1863 67.6374 32.9363 68.3856 32.4831C69.0715 31.9831 69.6327 31.3269 70.0692 30.53C70.4589 29.7331 70.6615 28.78 70.6615 27.7175C70.7223 26.7947 70.5431 25.8719 70.1414 25.0393C69.7398 24.2067 69.1294 23.4928 68.37 22.9675C67.6404 22.5118 66.798 22.2703 65.9383 22.2703C65.0786 22.2703 64.2362 22.5118 63.5065 22.9675C62.8206 23.4675 62.2595 24.1238 61.823 24.9206C61.4108 25.7994 61.208 26.7623 61.2306 27.7331C61.1699 28.6559 61.3491 29.5788 61.7507 30.4114C62.1524 31.244 62.7627 31.9578 63.5221 32.4831C64.2548 32.9363 65.0498 33.1863 65.9383 33.1863ZM83.3192 13.2175C83.3192 13.7644 83.2256 14.2644 82.9762 14.6706C82.7268 15.0613 82.3839 15.4206 81.9318 15.6706C81.4798 15.9206 80.9965 16.0144 80.4977 16.0144C79.9989 16.0144 79.5 15.9206 79.048 15.6706C78.6205 15.4321 78.2609 15.0878 78.0036 14.6706C77.7622 14.2255 77.6438 13.7239 77.6606 13.2175C77.6606 12.655 77.7698 12.155 78.0036 11.7644C78.253 11.2956 78.6115 11.0144 79.048 10.7644C79.5 10.5144 79.9833 10.405 80.4977 10.405C80.9939 10.3935 81.4846 10.5113 81.9217 10.7469C82.3589 10.9824 82.7276 11.3276 82.9918 11.7488C83.2187 12.2043 83.331 12.7085 83.3192 13.2175ZM78.0192 37.1238V18.28H82.9762V37.155H78.0036L78.0192 37.1238ZM96.2262 23.2175V23.28C95.9924 23.1706 95.6806 23.1238 95.4468 23.0769C95.135 23.0144 94.8856 23.0144 94.5895 23.0144C93.2021 23.0144 92.1577 23.4206 91.4718 24.2644C90.7236 25.1238 90.3806 26.3269 90.3806 27.8738V37.1394H85.408V18.2644H89.9753L90.1312 21.1238C90.63 20.1238 91.2224 19.3738 92.0642 18.8113C92.9015 18.2647 93.8872 17.9918 94.8856 18.03C95.2442 18.03 95.5871 18.0613 95.8833 18.1238C96.0392 18.1706 96.1327 18.1706 96.2262 18.2175V23.2175ZM98.2215 37.1238V10.53H103.179V20.6863C103.88 19.78 104.675 19.0769 105.673 18.53C107.252 17.7538 109.046 17.5336 110.766 17.905C112.485 18.2764 114.03 19.2176 115.15 20.5769C116.831 22.5184 117.722 25.023 117.644 27.5925C117.67 30.2125 116.751 32.7537 115.057 34.7488C114.273 35.6697 113.297 36.4071 112.199 36.9093C111.1 37.4114 109.904 37.6659 108.697 37.655C107.561 37.6862 106.435 37.4272 105.426 36.9024C104.417 36.3776 103.558 35.6042 102.929 34.655L102.773 37.1081L98.2215 37.155V37.1238ZM107.808 33.1863C108.697 33.1863 109.492 32.9363 110.24 32.4831C110.926 31.9831 111.487 31.3269 111.924 30.53C112.329 29.7331 112.516 28.78 112.516 27.7175C112.516 26.6706 112.329 25.7175 111.924 24.9206C111.514 24.1522 110.939 23.485 110.24 22.9675C109.51 22.5118 108.668 22.2703 107.808 22.2703C106.949 22.2703 106.106 22.5118 105.377 22.9675C104.675 23.4675 104.129 24.1238 103.677 24.9206C103.265 25.7994 103.062 26.7623 103.085 27.7331C103.024 28.6559 103.203 29.5788 103.605 30.4114C104.007 31.244 104.617 31.9578 105.377 32.4831C106.109 32.9363 106.904 33.1863 107.808 33.1863ZM119.515 37.1394V18.2644H124.082L124.238 20.7175C124.812 19.7772 125.626 19.0076 126.597 18.4884C127.567 17.9692 128.658 17.7193 129.757 17.7644C131.013 17.7426 132.248 18.0927 133.307 18.7708C134.366 19.4489 135.203 20.425 135.711 21.5769C136.257 22.7644 136.553 24.2331 136.553 25.8738V37.1863H131.58V26.53C131.58 25.2175 131.284 24.1863 130.692 23.4206C130.099 22.6706 129.289 22.2644 128.26 22.2644C127.512 22.2644 126.857 22.4206 126.28 22.7644C125.735 23.1238 125.283 23.5769 124.94 24.2175C124.593 24.8651 124.421 25.5922 124.441 26.3269V37.1394H119.515ZM139.032 37.1394V10.5144H144.004V20.6706C144.678 19.7593 145.554 19.0179 146.563 18.5053C147.572 17.9927 148.687 17.723 149.819 17.7175C150.993 17.7003 152.157 17.9484 153.223 18.4434C154.288 18.9384 155.23 19.6676 155.976 20.5769C157.645 22.5183 158.529 25.0152 158.454 27.5769C158.482 30.1971 157.562 32.7388 155.867 34.7331C155.083 35.654 154.107 36.3915 153.009 36.8936C151.91 37.3958 150.714 37.6503 149.507 37.6394C148.371 37.6706 147.245 37.4116 146.236 36.8868C145.227 36.362 144.368 35.5886 143.739 34.6394L143.599 37.0925L139.032 37.1394ZM148.665 33.1863C149.569 33.1863 150.364 32.9363 151.097 32.4831C151.798 31.9831 152.344 31.3269 152.796 30.53C153.186 29.7331 153.388 28.78 153.388 27.7175C153.449 26.7947 153.27 25.8719 152.868 25.0393C152.467 24.2067 151.856 23.4928 151.097 22.9675C150.367 22.5118 149.525 22.2703 148.665 22.2703C147.805 22.2703 146.963 22.5118 146.233 22.9675C145.547 23.4675 144.986 24.1238 144.55 24.9206C144.115 25.7916 143.911 26.7602 143.957 27.7331C143.897 28.6559 144.076 29.5788 144.477 30.4114C144.879 31.244 145.49 31.9578 146.249 32.4831C146.982 32.9363 147.73 33.1863 148.665 33.1863Z" fill="#FF385C"/>
</g>
<defs>
<clipPath id="clip0_34_1670">
<rect width="159" height="50" fill="white"/>
</clipPath>
</defs>
</svg>

<svg xmlns="http://www.w3.org/2000/svg" width="159" height="50" fill="none"><g clip-path="url(#a)"><path fill="#FF385C" d="M45.58 35.436c-.25-.61-.483-1.25-.733-1.797l-1.153-2.609-.047-.047c-3.43-7.5-7.093-15.125-10.974-22.625l-.156-.312c-.39-.735-.78-1.547-1.185-2.297-.498-.89-.982-1.844-1.777-2.75a8.265 8.265 0 0 0-6.39-3.034A8.246 8.246 0 0 0 16.772 3c-.733.906-1.278 1.86-1.777 2.75-.39.812-.78 1.61-1.185 2.343l-.156.313C9.836 15.905 6.111 23.53 2.681 31.03l-.093.094c-.343.812-.749 1.656-1.138 2.562a29.99 29.99 0 0 0-.748 1.797 10.648 10.648 0 0 0 1.508 10.42 10.603 10.603 0 0 0 4.328 3.292c1.704.702 3.56.946 5.387.71a13.044 13.044 0 0 0 4.957-1.719c2.027-1.14 3.975-2.797 6.157-5.187 2.183 2.39 4.178 4.047 6.158 5.203a13.04 13.04 0 0 0 6.266 1.797 10.57 10.57 0 0 0 6.963-2.58 10.616 10.616 0 0 0 3.56-6.53 9.302 9.302 0 0 0-.406-5.468v.015ZM23.195 38.03c-2.68-3.438-4.427-6.594-5.02-9.297a8.143 8.143 0 0 1-.155-3.062c.11-.797.405-1.5.81-2.094.936-1.36 2.573-2.203 4.365-2.203a5.134 5.134 0 0 1 4.365 2.187c.405.625.702 1.313.795 2.11.156.906.094 1.953-.156 3.062-.592 2.656-2.338 5.844-5.004 9.297Zm19.86 2.313a7.447 7.447 0 0 1-1.481 3.533 7.423 7.423 0 0 1-3.04 2.326c-1.184.5-2.494.64-3.772.5-1.247-.156-2.494-.563-3.773-1.313a24.396 24.396 0 0 1-5.658-4.843c3.274-4.063 5.253-7.766 6.001-11.063.359-1.562.406-2.969.25-4.265a8.651 8.651 0 0 0-1.34-3.438 8.36 8.36 0 0 0-3.057-2.656 8.338 8.338 0 0 0-3.943-.906c-2.884 0-5.456 1.343-7.015 3.546a8.106 8.106 0 0 0-1.325 3.454 10.309 10.309 0 0 0 .25 4.265c.748 3.297 2.775 7.047 6.001 11.094a22.353 22.353 0 0 1-5.658 4.875c-1.294.75-2.525 1.14-3.773 1.297a7.407 7.407 0 0 1-5.45-1.47 7.44 7.44 0 0 1-2.843-4.89c-.155-1.25-.046-2.5.453-3.906.155-.5.39-1 .639-1.594.343-.812.748-1.656 1.138-2.5l.062-.109A511.797 511.797 0 0 1 16.586 9.764l.156-.312c.39-.75.78-1.547 1.184-2.297.406-.797.842-1.563 1.404-2.188a5.177 5.177 0 0 1 3.967-1.856 5.166 5.166 0 0 1 3.967 1.857c.546.625.998 1.39 1.403 2.187.39.75.78 1.562 1.184 2.297l.156.312A619.92 619.92 0 0 1 40.92 32.28l.047.047c.405.812.748 1.719 1.138 2.5.25.61.499 1.094.655 1.61.296 1.406.452 2.656.296 3.906Zm21.699-2.657a7.81 7.81 0 0 1-6.158-2.86 10.25 10.25 0 0 1-2.494-7 10.89 10.89 0 0 1 2.588-7.155 8.263 8.263 0 0 1 6.36-2.907 6.69 6.69 0 0 1 5.767 3l.156-2.453h4.552v18.875h-4.567l-.156-2.75a7.033 7.033 0 0 1-6.048 3.25Zm1.184-4.5c.904 0 1.7-.25 2.448-.703.686-.5 1.247-1.156 1.683-1.953.39-.797.593-1.75.593-2.813a5.354 5.354 0 0 0-2.292-4.75 4.59 4.59 0 0 0-4.864 0c-.685.5-1.246 1.157-1.683 1.954a6.28 6.28 0 0 0-.592 2.812 5.356 5.356 0 0 0 2.291 4.75 4.5 4.5 0 0 0 2.416.703ZM83.32 13.218c0 .546-.093 1.046-.343 1.453-.25.39-.592.75-1.044 1-.452.25-.936.343-1.434.343-.5 0-.998-.093-1.45-.343a2.87 2.87 0 0 1-1.044-1 2.85 2.85 0 0 1-.343-1.454c0-.562.109-1.062.343-1.453.249-.468.608-.75 1.044-1 .452-.25.935-.359 1.45-.359a2.861 2.861 0 0 1 2.494 1.344c.227.455.339.96.327 1.468Zm-5.3 23.906V18.28h4.957v18.875h-4.972l.015-.031Zm18.207-13.907v.063c-.234-.11-.545-.156-.78-.203-.311-.063-.56-.063-.856-.063-1.388 0-2.432.407-3.118 1.25-.748.86-1.091 2.063-1.091 3.61v9.265h-4.973V18.264h4.567l.156 2.86c.499-1 1.091-1.75 1.933-2.313a4.824 4.824 0 0 1 2.822-.781c.358 0 .701.031.997.094.156.047.25.047.343.094v5Zm1.996 13.907V10.53h4.957v10.156c.701-.906 1.496-1.61 2.494-2.156a7.807 7.807 0 0 1 9.477 2.047 10.244 10.244 0 0 1 2.494 7.015 10.89 10.89 0 0 1-2.587 7.157 8.25 8.25 0 0 1-6.36 2.906 6.691 6.691 0 0 1-5.768-3l-.156 2.453-4.551.047v-.031Zm9.586-3.938c.889 0 1.684-.25 2.432-.703.686-.5 1.247-1.156 1.684-1.953.405-.797.592-1.75.592-2.813 0-1.046-.187-2-.592-2.796a5.864 5.864 0 0 0-1.684-1.953 4.591 4.591 0 0 0-4.863 0c-.702.5-1.248 1.156-1.7 1.953a6.276 6.276 0 0 0-.592 2.812 5.349 5.349 0 0 0 2.292 4.75 4.508 4.508 0 0 0 2.431.703Zm11.707 3.953V18.264h4.567l.156 2.454a6.176 6.176 0 0 1 5.519-2.954 6.378 6.378 0 0 1 3.55 1.007 6.399 6.399 0 0 1 2.404 2.806c.546 1.187.842 2.656.842 4.297v11.312h-4.973V26.53c0-1.313-.296-2.344-.888-3.11-.593-.75-1.403-1.156-2.432-1.156-.748 0-1.403.157-1.98.5-.545.36-.997.813-1.34 1.454a4.223 4.223 0 0 0-.499 2.109v10.812h-4.926Zm19.517 0V10.514h4.972v10.157a7.267 7.267 0 0 1 5.815-2.953 7.812 7.812 0 0 1 6.157 2.859 10.277 10.277 0 0 1 2.478 7 10.873 10.873 0 0 1-2.587 7.156 8.248 8.248 0 0 1-6.36 2.906 6.691 6.691 0 0 1-5.768-3l-.14 2.453-4.567.047Zm9.633-3.953c.904 0 1.699-.25 2.432-.703.701-.5 1.247-1.156 1.699-1.953.39-.797.592-1.75.592-2.813a5.348 5.348 0 0 0-2.291-4.75 4.591 4.591 0 0 0-4.864 0c-.686.5-1.247 1.157-1.683 1.954a5.693 5.693 0 0 0-.593 2.812 5.348 5.348 0 0 0 2.292 4.75c.733.453 1.481.703 2.416.703Z"/></g><defs><clipPath id="a"><path fill="#fff" d="M0 0h159v50H0z"/></clipPath></defs></svg>
